X:1012
T: Galician Sher
M: 2/4
L: 1/16
K: Dphr ^F
|:"Dm"D4- DC=B,C|E2 D2 D2 D2|       CGGC CGGC|CGGC D2C2|
  "Dm"D4- DC=B,C|E2 D2 D2 D2|"Adim" AGFG F2E2|"Dm"D8::
 "Dm" F4 "Gm" G4    |A_BAG A4   |_B2AG A2GF|"Dm"G2FE F2D2|
 "Dm" F4 "Gm" G4    |A_BAG A4   |c_BAG F2E2|"Dm"D8::
 "C"=E2G2 G=FEF|G8         |c_BAG AG^FE|^FAGF F_ED2|
 =E2G2 G=FEF|G8         |AGFG AG^FE|"Dm"D8  :|


 

